X: 16539
T: Halloween
R: strathspey
M: 4/4
K: Fmajor
|:c>B|{/B}A2 G>F F2 f>g|{/f}a2 g>f {/e}d3 f|{/d}c3 d cA GF|E>F G>A G2 c>B|
{/B}A2 A>G F2 f>g|{/f}a2 g>f {/e}d3 f|A>B c>d cA GF|A2 F>G F2:|
|:fe|dc de f>g fe|{/e}d>c d>e {/de}f2 F>G|Ac fd cA GF|{/GA}A2 GA G2 c>B|
{/B}A2 GF dc BA|G>d g>f {/f}e2 dc|ba gf {/f}e2 dc|d>e f>g f2:|

